fs/arrow_reply_20_regular.svg

<svg viewBox="0 0 20 20" fill="none" xmlns="http://www.w3.org/2000/svg" height="1em" width="1em">
  <path d="M3.707 8.99981L7.09619 12.3895C7.29146 12.5848 7.29146 12.9014 7.09619 13.0966C6.92263 13.2702 6.6532 13.2895 6.45834 13.1545L6.38909 13.0966L2.14645 8.85401C1.97288 8.68044 1.9536 8.41102 2.08859 8.21615L2.14645 8.1469L6.38909 3.90426C6.58435 3.709 6.90093 3.709 7.09619 3.90426C7.26976 4.07783 7.28905 4.34725 7.15405 4.54212L7.09619 4.61137L3.707 7.99981L10 8.00045C14.0609 8.00045 17.368 11.2279 17.4961 15.2577L17.5 15.5005C17.5 15.7766 17.2761 16.0005 17 16.0005C16.7239 16.0005 16.5 15.7766 16.5 15.5005C16.5 11.9886 13.715 9.1273 10.2331 9.00456L10 9.00045L3.707 8.99981L7.09619 12.3895L3.707 8.99981Z" fill="#212121"/>
</svg>

<svg viewBox="0 0 20 20" fill="none" xmlns="http://www.w3.org/2000/svg" height="1em" width="1em">
  <path d="m3.707 9 3.39 3.39a.5.5 0 0 1-.639.764l-.069-.057-4.243-4.243a.5.5 0 0 1-.057-.638l.057-.07L6.39 3.905a.5.5 0 0 1 .765.638l-.058.07L3.707 8H10a7.5 7.5 0 0 1 7.496 7.258l.004.243a.5.5 0 0 1-1 0 6.5 6.5 0 0 0-6.267-6.496L10 9H3.707l3.39 3.39L3.706 9Z" fill="#212121"/>
</svg>
